X:173
T:Salamanca Reel, The  
B:CRE1.146 (same)
F:file ID: cre.1/173sala
S:Tommy Reck
N:Definitely a piper's version of this tune!
M:C
L:1/8
%Q:180
R:reel
K:D
dB|ADD2 ADD2|Adcd (3gfe dc|BEE2 BEE2|Beed ceA>g|
"5"fBB2 FBB2|f3e dfag|fd (3gfe dABG|(3FGA EF D2:|
fg|"9"afdf (3gfe cg|fdec dABG|(3FGA dA (3Bcd fg|a3b a2 (3efg|
"13"abaf gage|(3gfd ec dfag|(3fgf ec dABG|(3FGA EF D2:|
dB|"17"AFF2 AFF2|Adcd (3gfe dc|BGG2 BGG2|Bee2 ceA>g|
"21"fBB2 fBB2|f3e dfag|fd (3gfe dABG (3FGA EF D2:|
(3fgf|"25"afdf (3gfe ce|(3fgd ec dABG|(3FGA DA defg|a3f a2 (3ABc|
"29"defg afbg|agfe dfag|(3fgf ec dABG|(3FGA EF D2:|

%%%

